!!!COM: Edwards, Roland
!!!CDT: 1912-1985
!!!OTL: National Anthem, Barbados
!!!ENC: Davis, Matthew J.
!!Vocal Line Only
**kern
*clefG2
*k[f#]
*G:
*M4/4
=1-
8b
8a
=2
4g
4g
4a
4a
=3
4.b
8a
4g
4d
=4
4e
4a
4g
4f#
=5
2.g
8b
8a
=6
4g
4g
4a
4a
=7
4.b
8a
4g
4b
=8
4a
4g
4f#
4e
=9
2.d
4d
=10
4.dd
8dd
4cc
4b
=11
4a
4g
4f#
4d
=12
4.dd
8dd
4cc
4b
=13
2.a
4f#
=14
4g
4d
4g
4a
=15
4b
4a
4g
4d
=16
4e
4a
4g
4f#
=17
2.g
==18
!Chorus
4dd
=19
4dd
4dd
4dd
4dd
=20
4.dd
8ee
4dd
4b
=21
4cc
4cc
4b
4b
=22
2.a
4dd
=23
4dd
4dd
4dd
4dd
=24
4.dd
8ee
4dd
4b
=25
4cc
4cc
4b
4b
=26
2.a
4d
=27
4g
4d
4g
4a
=28
4.b
8a
4g
4d
=29
4e
4a
4g
4e
=30
2.d
4d
=31
4g
4d
4g
4a
=32
4b
8b
8a
4g
4d
=33
4e
4cc
4b
4a
=34
2.g
==|!
*-
